X:134
T:score217
L:1/4
Q:1/4=96
M:3/4
I:linebreak $
K:Emin
 .B .B/.B/ .B | ^A/B/ e/g/ .b |!<(! (c/B/ ^A/B/ f/b/!<)! | .g) z .B |$"_cresc." .b a2 | .a g2 | %6
 g f2 |!f! .e z z |] %8
